X:1
T:Navarre, 77.77 D
T:Navarre, 77.77 D
T:Arranged by Daniel Brink Towner, 1908
T:Public Domain Courtesy of the Cyber Hymnal™
C:Arranged by Daniel Brink Towner, 1908
Z:Public Domain
Z:Courtesy of the Cyber Hymnal™
%%score ( 1 2 ) ( 3 4 )
L:1/8
Q:1/4=105
M:4/4
K:E
V:1 treble 
V:2 treble 
V:3 bass 
V:4 bass 
V:1
 [EG]3 [EA] [EB]2 [Ge]2 | [Fd]2 c2 [GB]4 | [B,E]3 [DF] [EG]2 [FB]2 | [EA]2 [EG]2 [DF]4 | %4
 [EG]3 [EA] [EB]2 [Ee]2 | [Fd]2 c2 [DB]4 | E3 [DF] [EG]2 [FA]2 | [EG]2 [DF]2 E4 | [Ac]6 [Ac]2 | %9
 [GB]>[Ac] [GB]>[EG] [GB]4 | [FA]3 [EG] [DF]2 [Dc]2 | [EB]2 [EG]2 [GB]4 | [Ac]6 [Ac]2 | %13
 [GB]>[Ac] [GB]>[EG] [GB]4 | [Ac]3 [Ac] [Ad]2 [Ge]2 | [EG]2 [DF]2 E4 |] %16
V:2
 x8 | x2 (EF) x4 | x8 | x8 | x8 | x2 (FE) x4 | E3 x5 | x4 E4 | x8 | x8 | x8 | x8 | x8 | x8 | x8 | %15
 x4 E4 |] %16
V:3
 [E,B,]3 [F,B,] [G,B,]2 [E,B,]2 | B,2 (CD) [E,E]4 | G,3 [F,A,] [E,B,]2 [B,,D]2 | %3
 [C,C]2 [E,B,]2 [B,,B,]4 | [E,B,]3 [F,B,] [G,B,]2 (^A,C) | B,2 [F,^A,]2 B,4 | %6
 [G,B,]3 [F,B,] [E,B,]2 [A,,C]2 | [B,,B,]2 [B,,A,]2 [E,G,]4 | E6 [A,E]2 | %9
 [E,E]>[E,E] [E,E]>[E,B,] [E,E]4 | [B,,D]3 [B,,E] [B,,B,]2 [B,,A,]2 | [E,G,]2 [E,B,]2 [E,E]4 | %12
 E6 [A,E]2 | [E,E]>[E,E] [E,E]>[E,B,] [E,E]4 | [A,E]3 [A,E] [F,B,]2 [E,B,]2 | %15
 [B,,B,]2 [B,,A,]2 [E,G,]4 |] %16
V:4
 x8 | (F,G,) A,2 x4 | G,3 x5 | x8 | x6 C,2 | (D,E,) x B,2 =A,2 x | x8 | x8 | (A,2 A,2 A,2) x2 | %9
 x8 | x8 | x8 | (A,2 A,2 A,2) x2 | x8 | x8 | x8 |] %16

